!!!SOCIAL_FUNCTION:	songs of the grass dance
!!!PDT:	1918

Specific Region: Dakotas, Minnesota, Montana, Nebraska
!!!REG: Dakotas and Montana
!!!LING_GROUP: Siouan
!!!LANG: Tone
!!!OTL@ENG: They Are Charging Them
!!!ONM: No. 195
**kern
*Imale
*clefG2
*k[b-e-a-d-]
*M3/4
*MM72
8f
=1
12a-
12f
12f
8.f
16f
8.f
16f
=2
2.f
=3||
*M2/4
16f
8.e-
16e-
8.c
=4||
*M3/4
12e-
12e-
12c
8.c
16c
8.c
16c
=5
16e-
[8.c
2c]
*clefF4
=6||
*M2/4
16e-
8.B-
16A-
8.A-
=7||
*M3/4
12A-
12F
12F
8.F
16F
4F
=8||
*M2/4
16A-
8.A-
16F
8.F
=9||
*M3/4
12A-
12A-
12F
8.F
16F
4F
=10
16A-
[8.F
2F]
=11||
*M2/4
16A-
8.E-
16C
8.C
=12||
*M3/4
12E-
12E-
12C
8.C
16C
4C
=13
16E-
[8.C
2C]
=14||
*M2/4
16E-
8.BB-
16AA-
8.AA-
=15||
*M3/4
12AA-
12AA-
12FF
8.FF
16FF
4FF
=16||
*M2/4
16AA-
8.AA-
16FF
8.FF
=17||
*M3/4
12AA-
12AA-
12FF
16FF
8.FF
4FF
==
*-
!!!CNT: Native American -- Sioux
!!!MRD: 1911/07//-1914///
!!!OCL: Frances Densmore
!!!YOR1: Teton Sioux Music, Bulletin 61,
!!!YOR2: Bureau of American Ethnology, Smithsonian Institution
!!!PPR: Government Printing Office
!!!PPP: Washington, D.C.
!!!PDT: 1918///
!!!ENC: Craig Stuart Sapp
!!!END: 2002/03/25/
!!!EEV: 2002/03/31/
!!!AGN: Dance Song/Song of the Grass Dance
!!!MPN@@SIO: Hanghe'-pikte
!!!MPN@ENG: Kills-at-Night
!!!TXO: Teton Sioux
!!!MLC: Standing Rock Reservation, South Dakota, United States of America
!!!ARL: 45.9/-100.7#
!!!catalog: Catalogue No. 593
!!!PPG: 473
!!!EFL: 200/245
!!!VTS: 1821137330
